public/topics/4.svg

<svg width="250" height="250" viewBox="0 0 250 250" fill="none" xmlns="http://www.w3.org/2000/svg">
<rect width="250" height="250" rx="30" fill="#6FFF00"/>
<path d="M112.2 75C112.2 81.5333 111 89.1333 108.6 97.8C106.333 106.333 103 116.867 98.6 129.4L94 143.2C96.2667 143.6 98.6 143.8 101 143.8C105.133 143.8 111.333 143.4 119.6 142.6C127.867 141.8 133.8 141.4 137.4 141.4L137.2 119.4C136.933 104.2 136.8 93 136.8 85.8C136.8 76.3333 139.933 71.6 146.2 71.6C151.133 71.6 154.267 72.8667 155.6 75.4C157.067 77.9333 157.8 81.7333 157.8 86.8C157.8 92 157.4 100.067 156.6 111C156.467 113.133 156.267 116.667 156 121.6C155.733 126.533 155.6 130.8 155.6 134.4L155.8 140.8L159.8 140.6C163 140.333 165.467 140.2 167.2 140.2C170.4 140.2 173.467 141.267 176.4 143.4C179.333 145.4 180.8 147.8 180.8 150.6C180.8 153.933 180.267 156.533 179.2 158.4C178.267 160.267 177.133 161.2 175.8 161.2C173.533 161.2 170.667 160.933 167.2 160.4C166.4 160.4 165.2 160.333 163.6 160.2C162 159.933 160.467 159.8 159 159.8L155.6 160L155.8 187C155.8 189.8 154.867 191.933 153 193.4C151.133 194.867 149 195.6 146.6 195.6C143.667 195.6 141.067 194.667 138.8 192.8C136.533 190.933 135.4 188.6 135.4 185.8C135.4 176.867 135.533 169.867 135.8 164.8C135.933 163.6 136 162.133 136 160.4C132 160.267 125.067 160.733 115.2 161.8C105.867 162.867 98.8 163.4 94 163.4C87.8667 163.4 82.6667 162.533 78.4 160.8C74.2667 159.067 72.2 156.333 72.2 152.6C72.2 149 72.9333 144.6 74.4 139.4C75.8667 134.2 78.0667 127.2 81 118.4C82.3333 114.933 83.3333 112.067 84 109.8C86.4 103 88.2 97.2667 89.4 92.6C90.6 87.8 91.9333 82 93.4 75.2C93.9333 73.0667 95.0667 71.4667 96.8 70.4C98.5333 69.3333 100.533 68.8 102.8 68.8C105.2 68.8 107.333 69.4 109.2 70.6C111.2 71.6667 112.2 73.1333 112.2 75Z" fill="white"/>
</svg>

<svg xmlns="http://www.w3.org/2000/svg" width="250" height="250" fill="none" viewBox="0 0 250 250"><rect width="250" height="250" fill="#6fff00" rx="30"/><path fill="#fff" d="M112.2 75q0 9.8-3.6 22.8-3.4 12.8-10 31.6L94 143.2q3.4.6 7 .6 6.2 0 18.6-1.2t17.8-1.2l-.2-22q-.4-22.8-.4-33.6 0-14.2 9.4-14.2 7.4 0 9.4 3.8 2.2 3.8 2.2 11.4 0 7.8-1.2 24.2-.2 3.2-.6 10.6t-.4 12.8l.2 6.4 4-.2q4.8-.4 7.4-.4 4.8 0 9.2 3.2 4.4 3 4.4 7.2 0 5-1.6 7.8-1.4 2.8-3.4 2.8-3.4 0-8.6-.8-1.2 0-3.6-.2-2.4-.4-4.6-.4l-3.4.2.2 27q0 4.2-2.8 6.4t-6.4 2.2q-4.4 0-7.8-2.8t-3.4-7q0-13.4.4-21 .2-1.8.2-4.4-6-.2-20.8 1.4-14 1.6-21.2 1.6-9.2 0-15.6-2.6-6.2-2.6-6.2-8.2 0-5.4 2.2-13.2t6.6-21q2-5.2 3-8.6 3.6-10.2 5.4-17.2 1.8-7.2 4-17.4.8-3.2 3.4-4.8t6-1.6q3.6 0 6.4 1.8 3 1.6 3 4.4"/></svg>
